X:1
T: A Trip to Mortsel
N:
C:
S:
A:
O:
R:
M:4/4
K:G
I:speed 200
%W: A
% voice 1 (1 lines, 23 notes)
K:G
M:4/4
L:1/16
d2 c2 |B4 d4 e2 f2 g4 |a2 b2 a2 g2 f4 d4 |g4 d4 d2 c2 B4 |A2 c4 A2 G4 F4 |
%W:
% voice 1 (1 lines, 23 notes)
G4 d4 e2 d2 c2 B2 |c2 B2 A2 G2 F4 A4 |B4 G4 d4 B2 d2 |c2 B2 A4 G4 d2 c2 |
%W:
% voice 1 (1 lines, 21 notes)
B4 d4 e2 f2 g4 |a2 b2 a2 g2 f4 d4 |g4 d4 d2 c2 B4 |A2 c4 A2 G4 F4 |
%W:
% voice 1 (1 lines, 21 notes)
G4 d4 e2 d2 c2 B2 |c2 B2 A2 G2 F4 A4 |B4 G4 d4 B2 d2 |c2 B2 A4 G4 ||
%W: B
% voice 1 (1 lines, 24 notes)
G2 F2 |E2 F2 G2 A2 B4 G4 |F4 G2 A2 G2 F2 E4 |c4 e4 d4 c2 B2 |A2 B2 c4 B6 d2 |
%W:
% voice 1 (1 lines, 21 notes)
c4 e4 d2 B4 d2 |A4 c4 B2 G4 B2 |A2 B2 c4 d4 g4 |f2 a4 f2 g4 G2 F2 |
%W:
% voice 1 (1 lines, 22 notes)
E2 F2 G2 A2 B4 G4 |F4 G2 A2 G2 F2 E4 |c4 e4 d4 c2 B2 |A2 B2 c4 B6 d2 |
%W:
% voice 1 (1 lines, 19 notes)
c4 e4 d2 B4 d2 |A4 c4 B2 G4 B2 |A2 B2 c4 d4 g4 |f2 a4 f2 g4 ||
